front/public/static/landing/logos/gray/contentsquare.svg

<svg fill="none" height="300" viewBox="0 0 600 300" width="600" xmlns="http://www.w3.org/2000/svg"><path d="m172.893 108.175c9.561 0 16.072 6.086 16.072 13.572v.823h-6.429v-1.728c0-3.702-1.73-6.087-6.015-6.087h-7.829c-3.627 0-6.511 2.962-6.511 6.498v11.68c0 3.619 2.884 6.581 6.511 6.581h7.829c4.368 0 6.098-1.893 6.098-6.169v-1.645h6.428v.987c0 6.744-6.264 13.407-16.154 13.407-9.891 0-18.049-8.473-18.049-19.001-.002-10.365 8.158-18.918 18.049-18.918zm-15.578 71.066 6.428-.083v2.796c0 1.892 1.318 3.208 3.297 3.208h12.362c1.979 0 3.297-1.316 3.297-3.208v-.823c0-1.892-.907-2.467-2.308-2.878l-15.329-4.606c-3.709-1.152-7.088-3.702-7.088-9.048v-.165c0-6.004 5.686-10.446 15.164-10.446 10.303 0 15.659 4.935 15.659 12.009v.575h-6.428v-2.715c0-1.892-1.236-3.207-3.296-3.207h-11.702c-1.979 0-3.297 1.315-3.297 3.207v1.398c0 1.645.824 2.385 2.72 2.962l13.6 4.03c5.192 1.564 8.406 3.866 8.406 9.213 0 5.923-5.686 10.363-15.329 10.363-10.797 0-16.155-5.265-16.155-12.009zm41.374-52.149c0-10.364 8.16-18.919 18.049-18.919 9.973 0 18.049 8.554 18.049 18.919 0 10.528-8.077 19-18.049 19-9.89 0-18.049-8.472-18.049-19zm17.966 27.062c9.974 0 17.968 8.472 17.968 18.835 0 4.194-1.813 8.636-4.698 12.009-.165.165-.165.494 0 .658l4.286 4.688c.083.083.083.247.083.329 0 .246-.166.494-.496.494h-17.143c-9.89 0-17.967-8.473-17.967-18.178.001-10.363 8.079-18.835 17.967-18.835zm-4.285 30.515h9.149l-4.945-5.675 4.039-3.619 4.697 5.1c.247.246.577.412.908.412.659 0 1.237-.495 1.237-1.235v-12.503c0-3.619-2.885-6.58-6.511-6.58h-8.571c-3.626 0-6.511 2.961-6.511 6.58v10.94c-.003 3.619 2.882 6.58 6.508 6.58zm.166-45.157h8.489c3.626 0 6.511-2.961 6.511-6.58v-11.68c0-3.537-2.885-6.498-6.511-6.498h-8.489c-3.627 0-6.511 2.961-6.511 6.498v11.68c0 3.619 2.884 6.58 6.511 6.58zm33.708-30.597h5.439l14.259 21.057c.659.986 1.483 1.398 2.225 1.398.989 0 1.813-.74 1.813-2.056l-.082-20.399h6.098v36.437h-5.439l-14.423-21.222c-.576-.905-1.401-1.315-2.142-1.315-.989 0-1.814.823-1.814 2.056v20.481h-5.934zm39.149 0h34.698v4.935h-10.632c-2.142 0-3.709 1.563-3.709 3.701v27.801h-5.934v-27.801c0-2.138-1.567-3.701-3.709-3.701h-10.715zm45.082 0h25.88v4.935h-16.319c-2.143 0-3.709 1.563-3.709 3.701v2.879c0 2.139 1.566 3.702 3.709 3.702h14.093v4.605h-17.721v11.681h20.852v4.934h-26.785zm0 45.814h17.72c6.264 0 10.22 4.605 10.22 9.705 0 3.454-1.814 5.594-3.05 6.744-.577.575-.908.987-.908 1.481 0 .411.33.905.825 1.315 1.647 1.316 2.472 2.879 2.472 5.346v11.844h-6.016l.083-12.009c0-1.975-1.318-3.29-3.297-3.29h-8.902c-1.896 0-3.214 1.315-3.214 3.29v12.009h-5.934zm9.313 16.533h5.357c3.791 0 6.757-1.809 6.757-6.004 0-3.947-2.967-5.593-6.757-5.593h-5.357c-1.896 0-3.38 1.48-3.38 3.454v4.688c0 1.892 1.484 3.455 3.38 3.455zm31.731-62.347h5.439l14.259 21.057c.659.986 1.484 1.398 2.225 1.398.989 0 1.814-.74 1.814-2.056l-.083-20.399h6.098v36.437h-5.439l-14.423-21.222c-.576-.905-1.401-1.315-2.142-1.315-.989 0-1.814.823-1.814 2.056v20.481h-5.934zm38.901 0h35.029v4.935h-10.964c-2.142 0-3.708 1.563-3.708 3.701v27.801h-5.933v-27.801c0-2.138-1.569-3.701-3.711-3.701h-10.716zm-38.901 45.814h25.879v4.934h-16.318c-2.143 0-3.709 1.563-3.709 3.702v2.879c0 2.138 1.566 3.701 3.709 3.701h14.093v4.606h-17.72v11.68h20.853v4.934h-26.786zm-65.77.001h-5.769l-15.082 36.435h6.264l3.79-9.211h15.824l3.79 9.211h6.264zm-8.901 22.619 4.203-10.858c.825-2.055 2.802-2.055 3.626 0l4.203 10.858zm-50.603-22.619h5.933v24.757c0 4.031 3.297 5.675 5.933 5.675h5.44c3.379 0 6.511-1.81 6.511-5.675v-24.757h5.933v23.77c0 7.321-5.769 13.242-14.916 13.242-9.149 0-14.835-5.921-14.835-13.242z" fill="#364153"/></svg>

<svg width="600" height="300" viewBox="0 0 600 300" fill="none" xmlns="http://www.w3.org/2000/svg">
<path d="M172.893 108.175C182.454 108.175 188.965 114.261 188.965 121.747V122.57H182.536V120.842C182.536 117.14 180.806 114.755 176.521 114.755H168.692C165.065 114.755 162.181 117.717 162.181 121.253V132.933C162.181 136.552 165.065 139.514 168.692 139.514H176.521C180.889 139.514 182.619 137.621 182.619 133.345V131.7H189.047V132.687C189.047 139.431 182.783 146.094 172.893 146.094C163.002 146.094 154.844 137.621 154.844 127.093C154.842 116.728 163.002 108.175 172.893 108.175ZM157.315 179.241L163.743 179.158V181.954C163.743 183.846 165.061 185.162 167.04 185.162H179.402C181.381 185.162 182.699 183.846 182.699 181.954V181.131C182.699 179.239 181.792 178.664 180.391 178.253L165.062 173.647C161.353 172.495 157.974 169.945 157.974 164.599V164.434C157.974 158.43 163.66 153.988 173.138 153.988C183.441 153.988 188.797 158.923 188.797 165.997V166.572H182.369V163.857C182.369 161.965 181.133 160.65 179.073 160.65H167.371C165.392 160.65 164.074 161.965 164.074 163.857V165.255C164.074 166.9 164.898 167.64 166.794 168.217L180.394 172.247C185.586 173.811 188.8 176.113 188.8 181.46C188.8 187.383 183.114 191.823 173.471 191.823C162.674 191.823 157.316 186.558 157.316 179.814L157.315 179.241ZM198.689 127.092C198.689 116.728 206.849 108.173 216.738 108.173C226.711 108.173 234.787 116.727 234.787 127.092C234.787 137.62 226.71 146.092 216.738 146.092C206.848 146.092 198.689 137.62 198.689 127.092ZM216.655 154.154C226.629 154.154 234.623 162.626 234.623 172.989C234.623 177.183 232.81 181.625 229.925 184.998C229.76 185.163 229.76 185.492 229.925 185.656L234.211 190.344C234.294 190.427 234.294 190.591 234.294 190.673C234.294 190.919 234.128 191.167 233.798 191.167H216.655C206.765 191.167 198.688 182.694 198.688 172.989C198.689 162.626 206.767 154.154 216.655 154.154ZM212.37 184.669H221.519L216.574 178.994L220.613 175.375L225.31 180.475C225.557 180.721 225.887 180.887 226.218 180.887C226.877 180.887 227.455 180.392 227.455 179.652V167.149C227.455 163.53 224.57 160.569 220.944 160.569H212.373C208.747 160.569 205.862 163.53 205.862 167.149V178.089C205.859 181.708 208.744 184.669 212.37 184.669ZM212.536 139.512H221.025C224.651 139.512 227.536 136.551 227.536 132.932V121.252C227.536 117.715 224.651 114.754 221.025 114.754H212.536C208.909 114.754 206.025 117.715 206.025 121.252V132.932C206.025 136.551 208.909 139.512 212.536 139.512ZM246.244 108.915H251.683L265.942 129.972C266.601 130.958 267.425 131.37 268.167 131.37C269.156 131.37 269.98 130.63 269.98 129.314L269.898 108.915H275.996V145.352H270.557L256.134 124.13C255.558 123.225 254.733 122.815 253.992 122.815C253.003 122.815 252.178 123.638 252.178 124.871V145.352H246.244V108.915ZM285.393 108.915H320.091V113.85H309.459C307.317 113.85 305.75 115.413 305.75 117.551V145.352H299.816V117.551C299.816 115.413 298.249 113.85 296.107 113.85H285.392L285.393 108.915ZM330.475 108.915H356.355V113.85H340.036C337.893 113.85 336.327 115.413 336.327 117.551V120.43C336.327 122.569 337.893 124.132 340.036 124.132H354.129V128.737H336.408V140.418H357.26V145.352H330.475V108.915ZM330.475 154.729H348.195C354.459 154.729 358.415 159.334 358.415 164.434C358.415 167.888 356.601 170.028 355.365 171.178C354.788 171.753 354.457 172.165 354.457 172.659C354.457 173.07 354.787 173.564 355.282 173.974C356.929 175.29 357.754 176.853 357.754 179.32V191.164H351.738L351.821 179.155C351.821 177.18 350.503 175.865 348.524 175.865H339.622C337.726 175.865 336.408 177.18 336.408 179.155V191.164H330.474L330.475 154.729ZM339.788 171.262H345.145C348.936 171.262 351.902 169.453 351.902 165.258C351.902 161.311 348.935 159.665 345.145 159.665H339.788C337.892 159.665 336.408 161.145 336.408 163.119V167.807C336.408 169.699 337.892 171.262 339.788 171.262ZM371.519 108.915H376.958L391.217 129.972C391.876 130.958 392.701 131.37 393.442 131.37C394.431 131.37 395.256 130.63 395.256 129.314L395.173 108.915H401.271V145.352H395.832L381.409 124.13C380.833 123.225 380.008 122.815 379.267 122.815C378.278 122.815 377.453 123.638 377.453 124.871V145.352H371.519V108.915ZM410.42 108.915H445.449V113.85H434.485C432.343 113.85 430.777 115.413 430.777 117.551V145.352H424.844V117.551C424.844 115.413 423.275 113.85 421.133 113.85H410.417L410.42 108.915ZM371.519 154.729H397.398V159.663H381.08C378.937 159.663 377.371 161.226 377.371 163.365V166.244C377.371 168.382 378.937 169.945 381.08 169.945H395.173V174.551H377.453V186.231H398.306V191.165H371.52L371.519 154.729ZM305.749 154.73H299.98L284.898 191.165H291.162L294.952 181.954H310.776L314.566 191.165H320.83L305.749 154.73ZM296.848 177.349L301.051 166.491C301.876 164.436 303.853 164.436 304.677 166.491L308.88 177.349H296.848ZM246.245 154.73H252.178V179.487C252.178 183.518 255.475 185.162 258.111 185.162H263.551C266.93 185.162 270.062 183.352 270.062 179.487V154.73H275.995V178.5C275.995 185.821 270.226 191.742 261.079 191.742C251.93 191.742 246.244 185.821 246.244 178.5L246.245 154.73Z" fill="#364153"/>
</svg>
